X: 125006
T: O GIN I WERE A BARON'S HEIR
R: Waltz.
%R: waltz
B: James Kerr "Merry Melodies" v.1 p.25 s.0 #6
Z: 2017 John Chambers <jc:trillian.mit.edu>
M: 3/4
L: 1/4
K: D
uA |\
(d2e) | (f2b) | (a2f) | (f2d) |\
(e2c) | (A2d) | (f2e) |  e2uA |\
(d2e) | (f2b) | (a2f) | (f2d) |\
(Bd2) | (f2e) | e3 | d2 |]
ua |\
(a2f) | (f2b) | (a2f) | (f2d) |\
(e2c) | (A2d) | (f2e) | (e2A) |\
(d2e) | (f2b) | (a2f) | (f2d) |\
(Bd2) | (f2"_D.C. to Allegro."e) | e3 | d2 |]

%%sep 1 1 500
%%sep 1 1 500

